static/images/looper.svg

<svg height="1401" viewBox="0 0 1200 1401" width="1200" xmlns="http://www.w3.org/2000/svg" xmlns:xlink="http://www.w3.org/1999/xlink"><defs><linearGradient id="a" x1="-72.292969%" x2="35.692708%" y1="-18.816995%" y2="60.566089%"><stop offset="0" stop-color="#17ead9"/><stop offset="1" stop-color="#02afde"/></linearGradient><path id="b" d="m84.5099453 6.41387479 1061.1968547 545.33600121c33.33548 17.130689 54.2932 51.463655 54.2932 88.943174v688.71505l-1093.486496 71.37585c-55.1111948 3.59731-102.70384078-38.16294-106.30114984-93.27414-.14153184-2.16828-.21235416-4.3406-.21235416-6.5135v-1242.9953942c0-32.0325155 25.9674845-58 58-58 9.2207824 0 18.3086887 2.1984342 26.5099453 6.41295899z"/><mask id="c" fill="#fff"><use fill="#fff" fill-rule="evenodd" xlink:href="#b"/></mask></defs><g fill="none" fill-rule="evenodd"><use fill="url(#a)" xlink:href="#b"/><g mask="url(#c)" opacity=".768059" stroke="#fff"><g stroke-width="1.2"><rect height="298" opacity=".171586" rx="18.000001" transform="matrix(-.61290705 -.79015501 .79015501 -.61290705 1571.023186 2342.343671)" width="298" x="885" y="62"/><rect height="298" opacity=".265035" rx="18.000001" transform="matrix(-.66131187 -.75011107 .75011107 -.66131187 1579.683677 2288.648317)" width="298" x="855" y="62"/><rect height="298" opacity=".689213" rx="18.000001" transform="matrix(-.70710678 -.70710678 .70710678 -.70710678 1585.229581 2234.628642)" width="298" x="826" y="62"/><rect height="298" opacity=".042827" rx="18.000001" transform="matrix(-.75011107 -.66131187 .66131187 -.75011107 1584.318157 2179.213148)" width="298" x="796" y="62"/><rect height="298" opacity=".222976" rx="18.000001" transform="matrix(-.79015501 -.61290705 .61290705 -.79015501 1578.668448 2123.532662)" width="298" x="766" y="62"/><rect height="298" opacity=".661485" rx="18.000001" transform="matrix(-.82708057 -.56208338 .56208338 -.82708057 1568.366716 2067.957791)" width="298" x="736" y="62"/><rect height="298" opacity=".17958" rx="18.000001" transform="matrix(-.86074203 -.50904142 .50904142 -.86074203 1553.526694 2012.846978)" width="298" x="706" y="62"/><rect height="298" opacity=".795666" rx="18.000001" transform="matrix(-.89100652 -.4539905 .4539905 -.89100652 1536.179394 1958.998529)" width="298" x="677" y="62"/><rect height="298" opacity=".045495" rx="18.000001" transform="matrix(-.91775463 -.39714789 .39714789 -.91775463 1510.816722 1905.378799)" width="298" x="646" y="62"/><rect height="298" opacity=".126288" rx="18.000001" transform="matrix(-.96029369 -.27899111 .27899111 -.96029369 1453.909029 1803.959422)" width="298" x="587" y="62"/><rect height="298" opacity=".335327" rx="18.000001" transform="matrix(-.97591676 -.21814324 .21814324 -.97591676 1418.96901 1755.927565)" width="298" x="557" y="62"/><rect height="298" opacity=".252807" rx="18.000001" transform="matrix(-.98768834 -.15643447 .15643447 -.98768834 1382.657334 1710.308373)" width="298" x="528" y="62"/><rect height="298" opacity=".280735" rx="18.000001" transform="matrix(-.99556196 -.09410831 .09410831 -.99556196 1339.276175 1666.857545)" width="298" x="497" y="62"/></g><rect height="297" rx="18.000001" transform="matrix(-.94088077 -.33873792 .33873792 -.94088077 1485.240968 1853.999089)" width="297" x="617.5" y="62.5"/><rect height="298.591549" opacity=".171586" rx="18.000001" stroke-width="1.2" transform="matrix(-.61290705 -.79015501 .79015501 -.61290705 733.715787 2032.608655)" width="298.431373" x="390.261805" y="111.933049"/><rect height="298.591549" opacity=".265035" rx="18.000001" stroke-width="1.2" transform="matrix(-.66131187 -.75011107 .75011107 -.66131187 716.768085 2013.924052)" width="298.431373" x="361.305136" y="119.152757"/><rect height="298.591549" opacity=".689213" rx="18.000001" stroke-width="1.2" transform="matrix(-.70710678 -.70710678 .70710678 -.70710678 697.154551 1996.112401)" width="298.431373" x="332.348468" y="126.372465"/><rect height="298.591549" opacity=".042827" rx="18.000001" stroke-width="1.2" transform="matrix(-.75011107 -.66131187 .66131187 -.75011107 675.036213 1979.400029)" width="298.431373" x="303.391799" y="133.592174"/><rect height="298.591549" opacity=".222976" rx="18.000001" stroke-width="1.2" transform="matrix(-.79015501 -.61290705 .61290705 -.79015501 650.591604 1963.99625)" width="298.431373" x="274.435131" y="140.811882"/><rect height="298.591549" opacity=".661485" rx="18.000001" stroke-width="1.2" transform="matrix(-.82708057 -.56208338 .56208338 -.82708057 624.015241 1950.092073)" width="298.431373" x="245.478462" y="148.03159"/><rect height="298.591549" opacity=".17958" rx="18.000001" stroke-width="1.2" transform="matrix(-.86074203 -.50904142 .50904142 -.86074203 595.516027 1937.859063)" width="298.431373" x="216.521794" y="155.251299"/><rect height="298.591549" opacity=".795666" rx="18.000001" stroke-width="1.2" transform="matrix(-.89100652 -.4539905 .4539905 -.89100652 565.315554 1927.448307)" width="298.431373" x="187.565125" y="162.471007"/><rect height="298.591549" opacity=".045495" rx="18.000001" stroke-width="1.2" transform="matrix(-.91775463 -.39714789 .39714789 -.91775463 533.646362 1918.989526)" width="298.431373" x="158.608457" y="169.690715"/><rect height="298.591549" opacity=".126288" rx="18.000001" stroke-width="1.2" transform="matrix(-.96029369 -.27899111 .27899111 -.96029369 466.875712 1908.335592)" width="298.431373" x="100.695119" y="184.130132"/><rect height="298.591549" opacity=".335327" rx="18.000001" stroke-width="1.2" transform="matrix(-.97591676 -.21814324 .21814324 -.97591676 432.277444 1906.287032)" width="298.431373" x="71.738451" y="191.34984"/><rect height="298.591549" opacity=".252807" rx="18.000001" stroke-width="1.2" transform="matrix(-.98768834 -.15643447 .15643447 -.98768834 397.213005 1906.482868)" width="298.431373" x="42.781782" y="198.569549"/><rect height="298.591549" opacity=".280735" rx="18.000001" stroke-width="1.2" transform="matrix(-.99556196 -.09410831 .09410831 -.99556196 361.941566 1908.937679)" width="298.431373" x="13.825114" y="205.789257"/><rect height="297.591549" rx="18.000001" transform="matrix(-.94088077 -.33873792 .33873792 -.94088077 500.750108 1912.590325)" width="297.431373" x="130.151788" y="177.410424"/></g></g></svg>

<?xml version="1.0" encoding="UTF-8"?>
<svg width="1200px" height="1401px" viewBox="0 0 1200 1401" version="1.1" xmlns="http://www.w3.org/2000/svg" xmlns:xlink="http://www.w3.org/1999/xlink">
    <!-- Generator: sketchtool 46.2 (44496) - http://www.bohemiancoding.com/sketch -->
    <title>90729194-5839-46FD-BAD2-668058CC8FE2</title>
    <desc>Created with sketchtool.</desc>
    <defs>
        <linearGradient x1="-72.2929688%" y1="-18.8169946%" x2="35.6927083%" y2="60.566089%" id="linearGradient-1">
            <stop stop-color="#17EAD9" offset="0%"></stop>
            <stop stop-color="#02AFDE" offset="100%"></stop>
        </linearGradient>
        <path d="M84.5099453,6.41387479 L1145.7068,551.749876 L1145.7068,551.749876 C1179.04228,568.880565 1200,603.213531 1200,640.69305 L1200,1329.4081 L106.513504,1400.78395 L106.513504,1400.78395 C51.4023092,1404.38126 3.80966322,1362.62101 0.212354159,1307.50981 C0.0708223181,1305.34153 7.13203769e-14,1303.16921 7.10542736e-14,1300.99631 L0,58.0009158 L6.39488462e-14,58.0009158 C6.00259945e-14,25.9684003 25.9674845,0.00091580015 58,0.00091580015 C67.2207824,0.00091580015 76.3086887,2.19935 84.5099453,6.41387479 Z" id="path-2"></path>
    </defs>
    <g id="Page-1" stroke="none" stroke-width="1" fill="none" fill-rule="evenodd">
        <g id="Rakam-API-Screen-NEW" transform="translate(0.000000, -2679.000000)">
            <g id="looper" transform="translate(0.000000, 2679.000000)">
                <mask id="mask-3" fill="white">
                    <use xlink:href="#path-2"></use>
                </mask>
                <use id="Mask" fill="url(#linearGradient-1)" xlink:href="#path-2"></use>
                <g opacity="0.76805933" mask="url(#mask-3)" stroke="#FFFFFF">
                    <g transform="translate(70.000000, 1185.000000)">
                        <rect id="duplicate_53_BG" stroke-width="1.20000005" opacity="0.171586434" transform="translate(1034.000000, 211.000000) rotate(-127.800000) translate(-1034.000000, -211.000000) " x="885" y="62" width="298" height="298" rx="18.0000007"></rect>
                        <rect id="duplicate_52_BG" stroke-width="1.20000005" opacity="0.2650345" transform="translate(1004.000000, 211.000000) rotate(-131.400000) translate(-1004.000000, -211.000000) " x="855" y="62" width="298" height="298" rx="18.0000007"></rect>
                        <rect id="duplicate_51_BG" stroke-width="1.20000005" opacity="0.689212566" transform="translate(975.000000, 211.000000) rotate(-135.000000) translate(-975.000000, -211.000000) " x="826" y="62" width="298" height="298" rx="18.0000007"></rect>
                        <rect id="duplicate_50_BG" stroke-width="1.20000005" opacity="0.0428274114" transform="translate(945.000000, 211.000000) rotate(-138.600000) translate(-945.000000, -211.000000) " x="796" y="62" width="298" height="298" rx="18.0000007"></rect>
                        <rect id="duplicate_49_BG" stroke-width="1.20000005" opacity="0.222976072" transform="translate(915.000000, 211.000000) rotate(-142.200000) translate(-915.000000, -211.000000) " x="766" y="62" width="298" height="298" rx="18.0000007"></rect>
                        <rect id="duplicate_48_BG" stroke-width="1.20000005" opacity="0.661485137" transform="translate(885.000000, 211.000000) rotate(-145.800000) translate(-885.000000, -211.000000) " x="736" y="62" width="298" height="298" rx="18.0000007"></rect>
                        <rect id="duplicate_47_BG" stroke-width="1.20000005" opacity="0.179580361" transform="translate(855.000000, 211.000000) rotate(-149.400000) translate(-855.000000, -211.000000) " x="706" y="62" width="298" height="298" rx="18.0000007"></rect>
                        <rect id="duplicate_46_BG" stroke-width="1.20000005" opacity="0.795665892" transform="translate(826.000000, 211.000000) rotate(-153.000000) translate(-826.000000, -211.000000) " x="677" y="62" width="298" height="298" rx="18.0000007"></rect>
                        <rect id="duplicate_45_BG" stroke-width="1.20000005" opacity="0.0454949641" transform="translate(795.000000, 211.000000) rotate(-156.600000) translate(-795.000000, -211.000000) " x="646" y="62" width="298" height="298" rx="18.0000007"></rect>
                        <rect id="duplicate_43_BG" stroke-width="1.20000005" opacity="0.126287959" transform="translate(736.000000, 211.000000) rotate(-163.800000) translate(-736.000000, -211.000000) " x="587" y="62" width="298" height="298" rx="18.0000007"></rect>
                        <rect id="duplicate_42_BG" stroke-width="1.20000005" opacity="0.335326575" transform="translate(706.000000, 211.000000) rotate(-167.400000) translate(-706.000000, -211.000000) " x="557" y="62" width="298" height="298" rx="18.0000007"></rect>
                        <rect id="duplicate_41_BG" stroke-width="1.20000005" opacity="0.252806778" transform="translate(677.000000, 211.000000) rotate(-171.000000) translate(-677.000000, -211.000000) " x="528" y="62" width="298" height="298" rx="18.0000007"></rect>
                        <rect id="duplicate_40_BG" stroke-width="1.20000005" opacity="0.280735313" transform="translate(646.000000, 211.000000) rotate(-174.600000) translate(-646.000000, -211.000000) " x="497" y="62" width="298" height="298" rx="18.0000007"></rect>
                        <rect id="duplicate_44_BG" stroke-width="1" transform="translate(766.000000, 211.000000) rotate(-160.200000) translate(-766.000000, -211.000000) " x="617.5" y="62.5" width="297" height="297" rx="18.0000007"></rect>
                        <rect id="duplicate_53_BG" stroke-width="1.20000005" opacity="0.171586434" transform="translate(539.477491, 261.228823) rotate(-127.800000) translate(-539.477491, -261.228823) " x="390.261805" y="111.933049" width="298.431373" height="298.591549" rx="18.0000007"></rect>
                        <rect id="duplicate_52_BG" stroke-width="1.20000005" opacity="0.2650345" transform="translate(510.520823, 268.448532) rotate(-131.400000) translate(-510.520823, -268.448532) " x="361.305136" y="119.152757" width="298.431373" height="298.591549" rx="18.0000007"></rect>
                        <rect id="duplicate_51_BG" stroke-width="1.20000005" opacity="0.689212566" transform="translate(481.564154, 275.668240) rotate(-135.000000) translate(-481.564154, -275.668240) " x="332.348468" y="126.372465" width="298.431373" height="298.591549" rx="18.0000007"></rect>
                        <rect id="duplicate_50_BG" stroke-width="1.20000005" opacity="0.0428274114" transform="translate(452.607485, 282.887948) rotate(-138.600000) translate(-452.607485, -282.887948) " x="303.391799" y="133.592174" width="298.431373" height="298.591549" rx="18.0000007"></rect>
                        <rect id="duplicate_49_BG" stroke-width="1.20000005" opacity="0.222976072" transform="translate(423.650817, 290.107657) rotate(-142.200000) translate(-423.650817, -290.107657) " x="274.435131" y="140.811882" width="298.431373" height="298.591549" rx="18.0000007"></rect>
                        <rect id="duplicate_48_BG" stroke-width="1.20000005" opacity="0.661485137" transform="translate(394.694148, 297.327365) rotate(-145.800000) translate(-394.694148, -297.327365) " x="245.478462" y="148.03159" width="298.431373" height="298.591549" rx="18.0000007"></rect>
                        <rect id="duplicate_47_BG" stroke-width="1.20000005" opacity="0.179580361" transform="translate(365.737480, 304.547073) rotate(-149.400000) translate(-365.737480, -304.547073) " x="216.521794" y="155.251299" width="298.431373" height="298.591549" rx="18.0000007"></rect>
                        <rect id="duplicate_46_BG" stroke-width="1.20000005" opacity="0.795665892" transform="translate(336.780811, 311.766782) rotate(-153.000000) translate(-336.780811, -311.766782) " x="187.565125" y="162.471007" width="298.431373" height="298.591549" rx="18.0000007"></rect>
                        <rect id="duplicate_45_BG" stroke-width="1.20000005" opacity="0.0454949641" transform="translate(307.824143, 318.986490) rotate(-156.600000) translate(-307.824143, -318.986490) " x="158.608457" y="169.690715" width="298.431373" height="298.591549" rx="18.0000007"></rect>
                        <rect id="duplicate_43_BG" stroke-width="1.20000005" opacity="0.126287959" transform="translate(249.910806, 333.425907) rotate(-163.800000) translate(-249.910806, -333.425907) " x="100.695119" y="184.130132" width="298.431373" height="298.591549" rx="18.0000007"></rect>
                        <rect id="duplicate_42_BG" stroke-width="1.20000005" opacity="0.335326575" transform="translate(220.954137, 340.645615) rotate(-167.400000) translate(-220.954137, -340.645615) " x="71.7384509" y="191.34984" width="298.431373" height="298.591549" rx="18.0000007"></rect>
                        <rect id="duplicate_41_BG" stroke-width="1.20000005" opacity="0.252806778" transform="translate(191.997469, 347.865323) rotate(-171.000000) translate(-191.997469, -347.865323) " x="42.7817824" y="198.569549" width="298.431373" height="298.591549" rx="18.0000007"></rect>
                        <rect id="duplicate_40_BG" stroke-width="1.20000005" opacity="0.280735313" transform="translate(163.040800, 355.085032) rotate(-174.600000) translate(-163.040800, -355.085032) " x="13.8251138" y="205.789257" width="298.431373" height="298.591549" rx="18.0000007"></rect>
                        <rect id="duplicate_44_BG" stroke-width="1" transform="translate(278.867474, 326.206198) rotate(-160.200000) translate(-278.867474, -326.206198) " x="130.151788" y="177.410424" width="297.431373" height="297.591549" rx="18.0000007"></rect>
                    </g>
                </g>
            </g>
        </g>
    </g>
</svg>
